X:1
T:All Through the Ale
M:4/4
L:1/8
K:C
 G2 GG c3 A| G2 GF E4| c2 CD E2 DC| E G4- GG G| e2 ec d2 dB| cd ec G4|\
 A2 AA B2 AB| d2 c6|
